X:1
T: The Guidman of Balangigh
C:
R:Jig
Q:180
K:F
M:6/8
L:1/16
|:F2|A4c2f4g2|e3dc2f4e2|d3cA2 c2A2F2|G2A2G2d4f2|
F3GA2f4g2|e3dc2f4e2|d2c2A2 c3AG2|A6d4f2|
f3ga2g4f2|e2d2c2f4d2|c2f2c2 A2G2F2|G6B4c2|
f3ga2 g2e2c2|f4e2 d2c2A2|c3BG2 F3GF2|A6f4:|
